assets/wallet-icons/browserWallet.svg

<svg width="32" height="32" viewBox="0 0 32 32" fill="none" xmlns="http://www.w3.org/2000/svg">
<path fill-rule="evenodd" clip-rule="evenodd" d="M9.84565 0.969587C9.57382 1.05443 9.30949 1.24371 9.15841 1.46173C8.89352 1.84395 8.90004 1.71935 8.90004 6.39813V10.7095L9.50941 11.3297L10.1188 11.9499V16.2904C10.1188 20.5556 10.1205 20.6353 10.2152 20.8885C10.3391 21.2198 10.6834 21.5411 11.0225 21.6417C11.2275 21.7026 11.8659 21.7125 15.5914 21.7125H19.922L20.5477 22.3228L21.1733 22.9331L25.5484 22.9205C29.8957 22.9079 29.9248 22.9072 30.1386 22.8083C30.4131 22.6813 30.6814 22.4131 30.8083 22.1386C30.9072 21.9248 30.9079 21.8962 30.9205 17.522L30.9332 13.1206L30.3238 12.5052L29.7144 11.8898L29.7018 7.48479L29.6891 3.07971L29.5495 2.82757C29.4726 2.68887 29.3165 2.50418 29.2024 2.41709C28.798 2.10827 28.9729 2.11877 24.2368 2.11877H19.9499L19.3297 1.5094L18.7095 0.900024L14.379 0.903165C10.8813 0.905696 10.0095 0.918446 9.84565 0.969587ZM24.6875 7.14377C24.7691 7.22538 24.7691 16.6059 24.6875 16.6875C24.6059 16.7691 15.2254 16.7691 15.1438 16.6875C15.0622 16.6059 15.0622 7.22538 15.1438 7.14377C15.2254 7.06216 24.6059 7.06216 24.6875 7.14377Z" fill="white"/>
<path d="M19.2363 12.5L12.1404 17.75L13.4524 14.6525L19.2363 12.5Z" fill="#E2761B" stroke="#E2761B"/>
<path d="M2.85333 12.6046L9.95036 17.8937L8.69223 14.7528L2.85333 12.6046ZM16.7959 24.7496L14.8903 27.628L18.9674 28.734L20.1395 24.8133L16.7959 24.7496ZM2.09845 24.8133L3.26329 28.734L7.34037 27.628L5.43478 24.7494L2.09845 24.8133Z" fill="#E4761B" stroke="#E4761B"/>
<path d="M7.11024 19.8859L5.97424 21.5804L10.0223 21.7575L9.87857 17.4683L7.11024 19.8859ZM15.1133 19.8859L12.309 17.4185L12.2155 21.7574L16.2566 21.5802L15.1133 19.8859ZM7.34038 27.628L9.77071 26.4581L7.67103 24.8417L7.34038 27.628ZM12.4528 26.4581L14.8903 27.628L14.5525 24.8417L12.4528 26.4581Z" fill="#E4761B" stroke="#E4761B"/>
<path d="M14.8662 27.6625L12.4443 26.5287L12.6373 28.0474L12.6158 28.6864L14.8662 27.6625ZM7.36462 27.6625L9.61504 28.6864L9.60071 28.0473L9.77937 26.5287L7.36462 27.6625Z" fill="#D7C1B3" stroke="#D7C1B3"/>
<path d="M9.37976 23.75L7.32532 23.1537L8.77521 22.5L9.37976 23.75ZM12.3595 23.75L12.9642 22.5L14.4212 23.1537L12.3595 23.75Z" fill="#233447" stroke="#233447"/>
<path d="M7.23792 27.6435L7.58077 24.7597L5.34454 24.8237L7.23792 27.6435ZM14.3966 24.7599L14.7395 27.6435L16.6329 24.8237L14.3966 24.7599ZM16.097 21.585L12.0817 21.7625L12.4533 23.8154L13.0463 22.5795L14.4751 23.2259L16.097 21.585ZM7.50928 23.2257L8.9383 22.5794L9.524 23.8153L9.90268 21.7625L5.88054 21.585L7.50928 23.2257Z" fill="#CD6116" stroke="#CD6116"/>
<path d="M5.94879 21.5842L7.63643 24.8197L7.57935 23.209L5.94879 21.5842ZM14.5518 23.209L14.4801 24.8197L16.175 21.5842L14.5518 23.209ZM9.97486 21.7599L9.59583 23.7928L10.0679 26.1913L10.1752 23.0332L9.97486 21.7599ZM12.1561 21.7599L11.9629 23.026L12.0487 26.1913L12.5278 23.7928L12.1561 21.7599Z" fill="#E4751F" stroke="#E4751F"/>
<path d="M12.3617 23.8403L11.8741 26.2654L12.2235 26.5L14.3485 24.8786L14.4212 23.25L12.3617 23.8403ZM7.32532 23.25L7.38355 24.8786L9.50891 26.5L9.85817 26.2654L9.37769 23.8403L7.32532 23.25Z" fill="#F6851B" stroke="#F6851B"/>
<path d="M12.3939 28.8143L12.4155 28.1499L12.2346 27.9928H9.50469L9.33814 28.1499L9.35266 28.8143L7.0719 27.75L7.86836 28.3929L9.48306 29.5H12.2562L13.8782 28.3929L14.6746 27.75L12.3939 28.8143Z" fill="#C0AD9E" stroke="#C0AD9E"/>
<path d="M12.2007 26.4773L11.8571 26.25H9.87519L9.53166 26.4773L9.35272 28L9.51731 27.8483H12.215L12.3938 27.9999L12.2007 26.4773Z" fill="#161616" stroke="#161616"/>
<path d="M19.5266 18.1443L20.1363 15.272L19.2251 12.6039L12.3232 17.6304L14.9778 19.8339L18.7302 20.911L19.5624 19.9607L19.2037 19.7071L19.7778 19.1933L19.3329 18.8554L19.9068 18.4259L19.5266 18.1443ZM1.841 15.272L2.45077 18.1443L2.0633 18.4259L2.63738 18.8553L2.1997 19.1933L2.77364 19.7071L2.41494 19.9607L3.2401 20.911L6.99237 19.8339L9.64698 17.6304L2.74486 12.6039L1.841 15.272Z" fill="#763D16" stroke="#763D16"/>
<path d="M18.7346 20.9833L14.9838 19.8959L16.1241 21.5946L14.4244 24.864L16.6619 24.8355H19.9966L18.7346 20.9833ZM7.00194 19.8959L3.25118 20.9833L2.00342 24.8355H5.33092L7.56124 24.864L5.8688 21.5946L7.00194 19.8959ZM12.0938 21.7722L12.3304 17.6712L13.4204 14.75H8.57962L9.65537 17.6712L9.90633 21.7722L9.99248 23.0658L9.99967 26.25H11.9861L12.0005 23.0658L12.0938 21.7722Z" fill="#F6851B" stroke="#F6851B"/>
</svg>

<svg viewBox="0 0 32 32" fill="none" xmlns="http://www.w3.org/2000/svg">
    <path fill-rule="evenodd" clip-rule="evenodd" d="M9.846.97a1.367 1.367 0 00-.688.492c-.264.382-.258.257-.258 4.936v4.312l.61.62.609.62v4.34c0 4.266.002 4.345.096 4.599.124.33.468.652.808.753.204.06.843.07 4.568.07h4.331l.626.61.625.611 4.375-.012c4.348-.013 4.377-.014 4.59-.113a1.47 1.47 0 00.67-.67c.1-.213.1-.242.113-4.616l.012-4.401-.61-.616-.609-.615-.012-4.405-.013-4.405-.14-.252a1.571 1.571 0 00-.347-.41c-.404-.31-.23-.3-4.965-.3H19.95l-.62-.609L18.71.9l-4.331.003c-3.498.003-4.37.015-4.533.067zm14.841 6.174c.082.081.082 9.462 0 9.543-.081.082-9.462.082-9.543 0-.082-.081-.082-9.462 0-9.543.081-.082 9.462-.082 9.543 0z" fill="#fff"/>
    <path d="M19.236 12.5l-7.096 5.25 1.312-3.098 5.784-2.152z" fill="#E2761B" stroke="#E2761B"/>
    <path d="M2.853 12.605l7.097 5.289-1.258-3.141-5.839-2.148zM16.796 24.75l-1.906 2.878 4.077 1.106 1.173-3.92-3.344-.064zm-14.698.063l1.165 3.921 4.077-1.106-1.905-2.879-3.337.064z" fill="#E4761B" stroke="#E4761B"/>
    <path d="M7.11 19.886L5.974 21.58l4.048.178-.143-4.29-2.769 2.418zm8.003 0l-2.804-2.467-.093 4.338 4.04-.177-1.143-1.694zM7.34 27.628l2.43-1.17-2.099-1.616-.33 2.786zm5.113-1.17l2.437 1.17-.338-2.786-2.1 1.616z" fill="#E4761B" stroke="#E4761B"/>
    <path d="M14.866 27.663l-2.422-1.134.193 1.518-.021.64 2.25-1.024zm-7.501 0l2.25 1.023-.014-.639.178-1.518-2.414 1.134z" fill="#D7C1B3" stroke="#D7C1B3"/>
    <path d="M9.38 23.75l-2.055-.596 1.45-.654.605 1.25zm2.98 0l.604-1.25 1.457.654-2.061.596z" fill="#233447" stroke="#233447"/>
    <path d="M7.238 27.643l.343-2.883-2.236.064 1.893 2.82zm7.159-2.883l.342 2.883 1.894-2.82-2.236-.063zm1.7-3.175l-4.015.177.371 2.053.593-1.236 1.43.647 1.621-1.641zm-8.588 1.64l1.43-.646.585 1.236.379-2.053-4.022-.177 1.628 1.64z" fill="#CD6116" stroke="#CD6116"/>
    <path d="M5.949 21.584l1.687 3.236-.057-1.611-1.63-1.625zm8.603 1.625l-.072 1.61 1.695-3.235-1.623 1.625zm-4.577-1.45l-.38 2.034.473 2.398.107-3.158-.2-1.273zm2.181 0l-.193 1.267.086 3.165.479-2.398-.372-2.033z" fill="#E4751F" stroke="#E4751F"/>
    <path d="M12.362 23.84l-.488 2.425.35.235 2.124-1.621.073-1.629-2.06.59zm-5.037-.59l.059 1.629L9.509 26.5l.35-.235-.481-2.425-2.053-.59z" fill="#F6851B" stroke="#F6851B"/>
    <path d="M12.394 28.814l.021-.664-.18-.157h-2.73l-.167.157.015.664-2.281-1.064.796.643L9.483 29.5h2.773l1.622-1.107.797-.643-2.281 1.064z" fill="#C0AD9E" stroke="#C0AD9E"/>
    <path d="M12.2 26.477l-.343-.227H9.875l-.343.227L9.352 28l.165-.152h2.698l.179.152-.193-1.523z" fill="#161616" stroke="#161616"/>
    <path d="M19.527 18.144l.61-2.872-.912-2.668-6.902 5.026 2.655 2.204 3.752 1.077.832-.95-.358-.254.574-.514-.445-.338.574-.43-.38-.28zM1.84 15.272l.61 2.872-.388.282.574.43-.437.337.574.514-.36.254.826.95 3.752-1.077 2.655-2.204-6.902-5.026-.904 2.668z" fill="#763D16" stroke="#763D16"/>
    <path d="M18.735 20.983l-3.751-1.087 1.14 1.699-1.7 3.269 2.238-.029h3.335l-1.262-3.852zM7.002 19.896l-3.75 1.087-1.249 3.852h3.328l2.23.029-1.692-3.27 1.133-1.698zm5.092 1.876l.236-4.1 1.09-2.922H8.58l1.075 2.921.251 4.101.086 1.294L10 26.25h1.986L12 23.066l.094-1.294z" fill="#F6851B" stroke="#F6851B"/>
</svg>
